X:271
T:Reel 271
M:4/4
K:Gmaj
L:1/8
G2BG dGBG|G2BG EAAF|G2BG dGBd|cABG EGG2:|dgBg dgeg|dgbg aaa2|dgeg defg|abac' bgg2|dgbg agbg|dgbg aaab|c'abg afge|dcBA BGG2|
